src/assets/filled/Import2.svg

<?xml version="1.0" encoding="UTF-8"?>
<svg width="24" height="24" viewBox="0 0 24 24" xmlns="http://www.w3.org/2000/svg">
 <path d="m16.8 9h-4.05v4.44l2.07-2.07c0.15-0.15 0.34-0.22 0.53-0.22s0.38 0.07 0.53 0.22c0.29 0.29 0.29 0.77 0 1.06l-3.35 3.35c-0.29 0.29-0.77 0.29-1.06 0l-3.35-3.35c-0.29-0.29-0.29-0.77 0-1.06s0.77-0.29 1.06 0l2.07 2.07v-4.44h-4.05c-3.2 0-5.2 2-5.2 5.2v2.59c0 3.21 2 5.21 5.2 5.21h9.59c3.2 0 5.2-2 5.2-5.2v-2.6c0.01-3.2-1.99-5.2-5.19-5.2z"/>
 <path d="m12.75 2.75c0-0.41-0.34-0.75-0.75-0.75s-0.75 0.34-0.75 0.75v6.25h1.5v-6.25z"/>
</svg>

<svg width="24" height="24" viewBox="0 0 24 24"  xmlns="http://www.w3.org/2000/svg">
<path d="M16.8 9H12.75V13.44L14.82 11.37C14.97 11.22 15.16 11.15 15.35 11.15C15.54 11.15 15.73 11.22 15.88 11.37C16.17 11.66 16.17 12.14 15.88 12.43L12.53 15.78C12.24 16.07 11.76 16.07 11.47 15.78L8.12 12.43C7.83 12.14 7.83 11.66 8.12 11.37C8.41 11.08 8.89 11.08 9.18 11.37L11.25 13.44V9H7.2C4 9 2 11 2 14.2V16.79C2 20 4 22 7.2 22H16.79C19.99 22 21.99 20 21.99 16.8V14.2C22 11 20 9 16.8 9Z" />
<path d="M12.75 2.75C12.75 2.34 12.41 2 12 2C11.59 2 11.25 2.34 11.25 2.75V9H12.75V2.75Z" />
</svg>
